packages/ffe-icons/icons/open/400/sm/receipt.svg

<svg xmlns="http://www.w3.org/2000/svg" height="20" viewBox="0 -960 960 960" width="20"><path d="M144-115v-730q0-6.417 5-8.708 5-2.292 10.147 1.826L189-828q4.636 4 10.818 4Q206-824 211-828l34-27q4.636-4 10.818-4Q262-859 267-855l34 27q4.636 4 10.818 4Q318-824 323-828l34-27q4.636-4 10.818-4Q374-859 379-855l34 27q4.636 4 10.818 4Q430-824 435-828l34-27q4.636-4 10.818-4Q486-859 491-855l34 27q4.636 4 10.818 4Q542-824 547-828l34-27q4.636-4 10.818-4Q598-859 603-855l34 27q4.636 4 10.818 4Q654-824 659-828l34-27q4.636-4 10.818-4Q710-859 715-855l34 27q4.636 4 10.818 4Q766-824 771-828l29.853-23.882Q806-856 811-853.708q5 2.291 5 8.708v730q0 6.417-5 8.708-5 2.292-10.147-1.826L771-132q-4.636-4-10.818-4Q754-136 749-132l-34 27q-4.636 4-10.818 4Q698-101 693-105l-34-27q-4.636-4-10.818-4Q642-136 637-132l-34 27q-4.636 4-10.818 4Q586-101 581-105l-34-27q-4.636-4-10.818-4Q530-136 525-132l-34 27q-4.636 4-10.818 4Q474-101 469-105l-34-27q-4.636-4-10.818-4Q418-136 413-132l-34 27q-4.636 4-10.818 4Q362-101 357-105l-34-27q-4.636-4-10.818-4Q306-136 301-132l-34 27q-4.636 4-10.818 4Q250-101 245-105l-34-27q-4.636-4-10.818-4Q194-136 189-132l-29.853 23.882Q154-104 149-106.292q-5-2.291-5-8.708Zm180-197h312q15.3 0 25.65-10.289 10.35-10.29 10.35-25.5Q672-363 661.65-373.5 651.3-384 636-384H324q-15.3 0-25.65 10.289-10.35 10.29-10.35 25.5Q288-333 298.35-322.5 308.7-312 324-312Zm0-132h312q15.3 0 25.65-10.289 10.35-10.29 10.35-25.5Q672-495 661.65-505.5 651.3-516 636-516H324q-15.3 0-25.65 10.289-10.35 10.29-10.35 25.5Q288-465 298.35-454.5 308.7-444 324-444Zm0-132h312q15.3 0 25.65-10.289 10.35-10.29 10.35-25.5Q672-627 661.65-637.5 651.3-648 636-648H324q-15.3 0-25.65 10.289-10.35 10.29-10.35 25.5Q288-597 298.35-586.5 308.7-576 324-576ZM216-216h528v-528H216v528Zm0-528v528-528Z"/></svg>

<svg xmlns="http://www.w3.org/2000/svg" height="20" viewBox="0 -960 960 960" width="20"><path d="M144-115v-730q0-6.42 5-8.71 5-2.29 10.15 1.83L189-828q4.64 4 10.82 4 6.18 0 11.18-4l34-27q4.64-4 10.82-4 6.18 0 11.18 4l34 27q4.64 4 10.82 4 6.18 0 11.18-4l34-27q4.64-4 10.82-4 6.18 0 11.18 4l34 27q4.64 4 10.82 4 6.18 0 11.18-4l34-27q4.64-4 10.82-4 6.18 0 11.18 4l34 27q4.64 4 10.82 4 6.18 0 11.18-4l34-27q4.64-4 10.82-4 6.18 0 11.18 4l34 27q4.64 4 10.82 4 6.18 0 11.18-4l34-27q4.64-4 10.82-4 6.18 0 11.18 4l34 27q4.64 4 10.82 4 6.18 0 11.18-4l29.85-23.88Q806-856 811-853.71t5 8.71v730q0 6.42-5 8.71-5 2.29-10.15-1.83L771-132q-4.64-4-10.82-4-6.18 0-11.18 4l-34 27q-4.64 4-10.82 4-6.18 0-11.18-4l-34-27q-4.64-4-10.82-4-6.18 0-11.18 4l-34 27q-4.64 4-10.82 4-6.18 0-11.18-4l-34-27q-4.64-4-10.82-4-6.18 0-11.18 4l-34 27q-4.64 4-10.82 4-6.18 0-11.18-4l-34-27q-4.64-4-10.82-4-6.18 0-11.18 4l-34 27q-4.64 4-10.82 4-6.18 0-11.18-4l-34-27q-4.64-4-10.82-4-6.18 0-11.18 4l-34 27q-4.64 4-10.82 4-6.18 0-11.18-4l-34-27q-4.64-4-10.82-4-6.18 0-11.18 4l-29.85 23.88Q154-104 149-106.29t-5-8.71Zm180-197h312q15.3 0 25.65-10.29Q672-332.58 672-347.79t-10.35-25.71Q651.3-384 636-384H324q-15.3 0-25.65 10.29Q288-363.42 288-348.21t10.35 25.71Q308.7-312 324-312Zm0-132h312q15.3 0 25.65-10.29Q672-464.58 672-479.79t-10.35-25.71Q651.3-516 636-516H324q-15.3 0-25.65 10.29Q288-495.42 288-480.21t10.35 25.71Q308.7-444 324-444Zm0-132h312q15.3 0 25.65-10.29Q672-596.58 672-611.79t-10.35-25.71Q651.3-648 636-648H324q-15.3 0-25.65 10.29Q288-627.42 288-612.21t10.35 25.71Q308.7-576 324-576ZM216-216h528v-528H216v528Zm0-528v528-528Z"/></svg>
